packages/ffe-icons/icons/open/300/md/local_hospital.svg

<svg xmlns="http://www.w3.org/2000/svg" height="24" viewBox="0 -960 960 960" width="24"><path d="M435.001-435.001V-335q0 18.846 13.077 31.923 13.076 13.076 31.922 13.076t31.922-13.076q13.077-13.077 13.077-31.923v-100.001H625q18.846 0 31.923-13.077 13.076-13.076 13.076-31.922t-13.076-31.922Q643.846-524.999 625-524.999H524.999V-625q0-18.846-13.077-31.923-13.076-13.076-31.922-13.076t-31.922 13.076Q435.001-643.846 435.001-625v100.001H335q-18.846 0-31.923 13.077-13.076 13.076-13.076 31.922t13.076 31.922q13.077 13.077 31.923 13.077h100.001Zm-222.692 295q-30.308 0-51.308-21t-21-51.308v-535.382q0-30.308 21-51.308t51.308-21h535.382q30.308 0 51.308 21t21 51.308v535.382q0 30.308-21 51.308t-51.308 21H212.309Zm0-59.999h535.382q4.616 0 8.463-3.846 3.846-3.847 3.846-8.463v-535.382q0-4.616-3.846-8.463-3.847-3.846-8.463-3.846H212.309q-4.616 0-8.463 3.846-3.846 3.847-3.846 8.463v535.382q0 4.616 3.846 8.463 3.847 3.846 8.463 3.846ZM200-760V-200-760Z"/></svg>

<svg xmlns="http://www.w3.org/2000/svg" height="24" viewBox="0 -960 960 960" width="24"><path d="M435-435v100q0 18.85 13.08 31.92Q461.15-290 480-290t31.92-13.08Q525-316.15 525-335v-100h100q18.85 0 31.92-13.08Q670-461.15 670-480t-13.08-31.92Q643.85-525 625-525H525v-100q0-18.85-13.08-31.92Q498.85-670 480-670t-31.92 13.08Q435-643.85 435-625v100H335q-18.85 0-31.92 13.08Q290-498.85 290-480t13.08 31.92Q316.15-435 335-435h100ZM212.31-140Q182-140 161-161q-21-21-21-51.31v-535.38Q140-778 161-799q21-21 51.31-21h535.38Q778-820 799-799q21 21 21 51.31v535.38Q820-182 799-161q-21 21-51.31 21H212.31Zm0-60h535.38q4.62 0 8.46-3.85 3.85-3.84 3.85-8.46v-535.38q0-4.62-3.85-8.46-3.84-3.85-8.46-3.85H212.31q-4.62 0-8.46 3.85-3.85 3.84-3.85 8.46v535.38q0 4.62 3.85 8.46 3.84 3.85 8.46 3.85ZM200-760v560-560Z"/></svg>
